!!! OTL: Berkowitz540
!!! Chapter: 1
!!! Section: IV
!!! Page: 135
!!! Mode: 
!!! Encoder: DJB
**kern
*staff1
*I"Piano
=1-
*clefF4
*k[]
*C:
*M4/4
4C/
4E\
8.G\L
[16A\Jk
8A\L]
8G\J
=2
4F#\
4D\
8.E\L
[16C\Jk
8C/L]
8D/J
=3
4C/
4E\
8.G\L
[16A\Jk
8A\L]
8G\J
=4
*M2/4
2B-\
=5
*M4/4
4B-\
4A\
8.G\L
[16F#\Jk
8F#\L]
8G\J
=6
4E\
4C/
8.D/L
[16BB-/Jk
8BB-/L]
8C/J
=7
!!linebreak:original
4AA/
4D\
8.E\L
[16G\Jk
8G\L]
8A\J
=8
*M2/4
2F#\
=9
*M4/4
4B-\
4A\
8.G\L
[16E\Jk
8E\L]
8C\J
=10
4.D\
[8C/
2C/]
==
*-
